icon-themes/sifr_svg/cmd/lc_toggleobjectrotatemode.svg

<svg viewBox="0 0 24 24" xmlns="http://www.w3.org/2000/svg"><path d="m4 2c-1.1 0-2 .9-2 2 0 .9675575.7003906 1.7957739 1.6503906 2l5.9355469 12.599609c-.3746129.362423-.5853397.870666-.5859375 1.400391 0 1.1.9 2 2 2s2-.9 2-2c0-.94-.658473-1.757165-1.580078-1.955078l-5.9531251-12.6894532c.1007708-.10837.1892027-.2275894.2636719-.3554688h12.5410152c.356633.6177098 1.015248 1 1.728516 1 1.1 0 2-.9 2-2s-.9-2-2-2c-.713966 0-1.373486.381687-1.730469 1h-12.5410154c-.3566334-.6177097-1.0152477-1-1.7285156-1zm12 4c-.26529 0-.53057 0-.71875.28125l-4 4-.28125.28125v.875l.28125.28125 4 4c.18817.18125.294486.28125.71875.28125h1v-1c0-.2653-.1-.53058-.28125-.71875l-2.28125-2.28125h.5625a4 4 0 0 1 4 4 4 4 0 0 1 -4 4v2a6 6 0 0 0 6-6 6 6 0 0 0 -6-6h-.5625l2.28125-2.28125c.18125-.18818.28125-.45344.28125-.71875v-1z" fill="#555753"/></svg>

<svg xmlns="http://www.w3.org/2000/svg" viewBox="0 0 24 24">
  <path
     style="fill:#555753"
     d="M 4 2 C 2.9 2 2 2.9 2 4 C 2 4.9675575 2.7003906 5.7957739 3.6503906 6 L 9.5859375 18.599609 C 9.2113246 18.962032 9.0005978 19.470275 9 20 C 9 21.1 9.9 22 11 22 C 12.1 22 13 21.1 13 20 C 13 19.06 12.341527 18.242835 11.419922 18.044922 L 5.4667969 5.3554688 C 5.5675677 5.2470988 5.6559996 5.1278794 5.7304688 5 L 18.271484 5 C 18.628117 5.6177098 19.286732 6 20 6 C 21.1 6 22 5.1 22 4 C 22 2.9 21.1 2 20 2 C 19.286034 2 18.626514 2.381687 18.269531 3 L 5.7285156 3 C 5.3718822 2.3822903 4.7132679 2 4 2 z M 16 6 C 15.73471 6 15.46943 6 15.28125 6.28125 L 11.28125 10.28125 L 11 10.5625 L 11 11.4375 L 11.28125 11.71875 L 15.28125 15.71875 C 15.46942 15.9 15.575736 16 16 16 L 17 16 L 17 15 C 17 14.7347 16.9 14.46942 16.71875 14.28125 L 14.4375 12 L 15 12 A 4 4 0 0 1 19 16 A 4 4 0 0 1 15 20 L 15 22 A 6 6 0 0 0 21 16 A 6 6 0 0 0 15 10 L 14.4375 10 L 16.71875 7.71875 C 16.9 7.53057 17 7.26531 17 7 L 17 6 L 16 6 z "
     />
</svg>
